CLEAR
FONTSIZE 36
FONTSTYLE BOLD

SETX 140

MAKE color = 10
TO test  :n
	REPEAT n
	PENCOLOR color 0 color 50
	LEFT 15
	PENUP
	FORWARD 45
	PENDOWN
	DRAWSTRING "THIS IS TORTUE TEXT"
	SUM color = color + 10
END REPEAT
END TO

test 24